packages/components/src/components/icon/wallet/ic-wallet-trade-types.svg

<svg width="16" height="16" viewBox="0 0 16 16" fill="none" xmlns="http://www.w3.org/2000/svg">
<path d="M15.5 15C15.7761 15 16 15.2239 16 15.5C16 15.7455 15.8231 15.9496 15.5899 15.9919L15.5 16H7.5C7.22386 16 7 15.7761 7 15.5C7 15.2545 7.17688 15.0504 7.41012 15.0081L7.5 15H15.5ZM4.78431 1.08859L4.85355 1.14645L7.85355 4.14645C8.04882 4.34171 8.04882 4.65829 7.85355 4.85355C7.67999 5.02712 7.41056 5.0464 7.21569 4.91141L7.14645 4.85355L5 2.707V15.5C5 15.7455 4.82312 15.9496 4.58988 15.9919L4.5 16C4.25454 16 4.05039 15.8231 4.00806 15.5899L4 15.5V2.707L1.85355 4.85355C1.67999 5.02712 1.41056 5.0464 1.21569 4.91141L1.14645 4.85355C0.97288 4.67999 0.953595 4.41056 1.08859 4.21569L1.14645 4.14645L4.14645 1.14645C4.32001 0.97288 4.58944 0.953595 4.78431 1.08859ZM11.5 15C11.4932 15 11.4864 14.9999 11.4796 14.9996C11.4629 14.9989 11.4455 14.9973 11.4281 14.9948C11.4166 14.9932 11.4056 14.9912 11.3948 14.9889C11.3795 14.9856 11.3642 14.9816 11.349 14.9768L11.309 14.9622C11.2955 14.9566 11.2817 14.9503 11.2682 14.9432C11.256 14.9367 11.2443 14.93 11.233 14.9228L11.1979 14.8984L11.193 14.895L11.192 14.894L11.1464 14.8536C11.1599 14.867 11.1739 14.8795 11.1883 14.891L11.1979 14.8984C11.1842 14.8881 11.1712 14.8771 11.1587 14.8654L8.14645 11.8536C7.95118 11.6583 7.95118 11.3417 8.14645 11.1464C8.32001 10.9729 8.58944 10.9536 8.78431 11.0886L8.85355 11.1464L11 13.292V0.5C11 0.25454 11.1769 0.0503916 11.4101 0.00805567L11.5 0C11.7455 0 11.9496 0.176875 11.9919 0.410124L12 0.5V13.292L14.1464 11.1464C14.32 10.9729 14.5894 10.9536 14.7843 11.0886L14.8536 11.1464C15.0271 11.32 15.0464 11.5894 14.9114 11.7843L14.8536 11.8536L11.8411 14.8656C11.8288 14.8771 11.8158 14.8881 11.8021 14.8984C11.7906 14.9072 11.7788 14.9154 11.7668 14.923C11.7557 14.93 11.744 14.9367 11.7321 14.943C11.7183 14.9503 11.7045 14.9566 11.6906 14.9624C11.678 14.9676 11.6647 14.9724 11.6512 14.9767C11.6358 14.9816 11.6205 14.9856 11.605 14.9889L11.569 14.994H11.567L11.5534 14.9972L11.527 14.998L11.5463 14.9979L11.566 14.994L11.5 15ZM8.5 0C8.77614 0 9 0.223858 9 0.5C9 0.74546 8.82312 0.949608 8.58988 0.991944L8.5 1H0.5C0.223858 1 0 0.776142 0 0.5C0 0.25454 0.176875 0.0503916 0.410124 0.00805567L0.5 0H8.5Z" fill="#333333"/>
</svg>

<svg width="16" height="16" fill="none" xmlns="http://www.w3.org/2000/svg"><path d="M15.5 15a.5.5 0 01.09.992L15.5 16h-8a.5.5 0 01-.09-.992L7.5 15h8zM4.784 1.089l.07.057 3 3a.5.5 0 01-.638.765l-.07-.057L5 2.707V15.5a.5.5 0 01-.41.492L4.5 16a.5.5 0 01-.492-.41L4 15.5V2.707L1.854 4.854a.5.5 0 01-.638.057l-.07-.057a.5.5 0 01-.057-.638l.057-.07 3-3a.5.5 0 01.638-.057zM11.5 15a.463.463 0 01-.151-.023l-.04-.015a.497.497 0 01-.076-.04l-.035-.024-.005-.003-.001-.001-.046-.04a.522.522 0 00.042.037l.01.007a.475.475 0 01-.04-.033l-3.012-3.011a.5.5 0 01.638-.765l.07.057L11 13.292V.5a.5.5 0 01.41-.492L11.5 0a.5.5 0 01.492.41L12 .5v12.792l2.146-2.146a.5.5 0 01.638-.057l.07.057a.5.5 0 01.057.638l-.057.07-3.013 3.012a.476.476 0 01-.19.11.484.484 0 01-.046.013l-.036.005h-.002l-.014.003-.026.001h.02l.019-.004L11.5 15zm-3-15a.5.5 0 01.09.992L8.5 1h-8A.5.5 0 01.41.008L.5 0h8z" fill="#333"/></svg>
